images/social/vk.svg

<svg width="24" height="24" viewBox="0 0 24 24" fill="none" xmlns="http://www.w3.org/2000/svg">
<g clip-path="url(#clip0_179_9407)">
<path fill-rule="evenodd" clip-rule="evenodd" d="M12 22.5C19.991 22.5 22.5 19.999 22.5 12.034C22.5 4.047 19.97 1.5 12 1.5C4.03 1.5 1.5 4.048 1.5 12.034C1.5 20 4.009 22.5 12 22.5Z" stroke="#9399A7"/>
<path fill-rule="evenodd" clip-rule="evenodd" d="M18.7378 8.62294C18.8478 8.27894 18.7378 8.02794 18.2518 8.02794H16.6408C16.2338 8.02794 16.0458 8.24794 15.9358 8.48194C15.9358 8.48194 15.1058 10.4869 13.9468 11.7859C13.5718 12.1619 13.3988 12.2869 13.1958 12.2869C13.0858 12.2869 12.9458 12.1619 12.9458 11.8169V8.60694C12.9458 8.19994 12.8198 8.01294 12.4758 8.01294H9.93778C9.68778 8.01294 9.53078 8.19994 9.53078 8.38794C9.53078 8.77994 10.1108 8.87394 10.1728 9.96994V12.3499C10.1728 12.8669 10.0788 12.9599 9.87478 12.9599C9.32678 12.9599 7.99578 10.9399 7.19778 8.63894C7.04078 8.18494 6.88478 8.01294 6.47778 8.01294H4.84878C4.37878 8.01294 4.30078 8.23194 4.30078 8.46694C4.30078 8.88894 4.84878 11.0189 6.85278 13.8369C8.18378 15.7629 10.0788 16.7969 11.7858 16.7969C12.8188 16.7969 12.9438 16.5619 12.9438 16.1709V14.7139C12.9438 14.2439 13.0378 14.1659 13.3668 14.1659C13.6018 14.1659 14.0248 14.2919 14.9798 15.2159C16.0758 16.3109 16.2638 16.8129 16.8748 16.8129H18.4868C18.9568 16.8129 19.1768 16.5779 19.0508 16.1229C18.9108 15.6689 18.3778 15.0119 17.6888 14.2289C17.3128 13.7899 16.7488 13.3049 16.5768 13.0699C16.3418 12.7569 16.4048 12.6319 16.5768 12.3499C16.5608 12.3499 18.5338 9.56294 18.7378 8.62294Z" fill="#9399A7"/>
</g>
<defs>
<clipPath id="clip0_179_9407">
<rect width="24" height="24" fill="white"/>
</clipPath>
</defs>
</svg>

<svg xmlns="http://www.w3.org/2000/svg" width="24" height="24" fill="none">
	<g clip-path="url(#a)" clip-rule="evenodd">
		<path stroke="#9399A7"
			d="M12 22.5c7.991 0 10.5-2.501 10.5-10.466C22.5 4.047 19.97 1.5 12 1.5 4.03 1.5 1.5 4.048 1.5 12.034 1.5 20 4.009 22.5 12 22.5Z" />
		<path fill="#9399A7" fill-rule="evenodd"
			d="M18.7378 8.62294c.11-.344 0-.595-.486-.595h-1.611c-.407 0-.595.22-.705.454 0 0-.83 2.00496-1.989 3.30396-.375.376-.548.501-.751.501-.11 0-.25-.125-.25-.47V8.60694c0-.407-.126-.594-.47-.594H9.93778c-.25 0-.407.187-.407.375 0 .392.58002.486.64202 1.582v2.37996c0 .517-.094.61-.29802.61-.548 0-1.879-2.02-2.677-4.32096-.157-.454-.313-.626-.72-.626h-1.629c-.47 0-.548.219-.548.454 0 .422.548 2.55196 2.552 5.36996 1.331 1.926 3.22602 2.96 4.93302 2.96 1.033 0 1.158-.235 1.158-.626v-1.457c0-.47.094-.548.423-.548.235 0 .658.126 1.613 1.05 1.096 1.095 1.284 1.597 1.895 1.597h1.612c.47 0 .69-.235.564-.69-.14-.454-.673-1.111-1.362-1.894-.376-.439-.94-.924-1.112-1.159-.235-.313-.172-.438 0-.72-.016 0 1.957-2.78696 2.161-3.72696Z" />
	</g>
	<defs>
		<clipPath id="a">
			<path fill="#fff" d="M0 0h24v24H0z" />
		</clipPath>
	</defs>
</svg>
